X:129
T:Steirische aus Mariazell (1.)
C:traditionell
R:Steirer
A:Mariazell, Steiermark
B:"Wer tanzt nach meiner Pfeife", Sepp Pichler, Steirisches Volksliedwerk, Graz, undatet
S:Steirisches Volkslied-Archiv 25/61
N:in der quelle in D, im buch in F, s. 23 nr. 1, quelle einstimmig
Z:abc transcription Simon Wascher
F:http://simonwascher.info/TradArchiv/
M:3/4
L:1/8
K:F
P:1
FA |\
cBdcBE | F2 CAGF | EGCBAG | FEFGAB |\
cBdcBE | F2 CAGF | EGdcBE | F4 :|
|: AF |\
EGBGcE| FAcAdc | BGdcBE | FEFGAB |\
cBdcBE | F2 CAGF | EGdcBE | F4 :|
